X: 201798
T: Tinker's Occupation
T: Eala\'in an Tinc\'eara
N: a/k/a "Johnny Doherty's Jolly Tinker" [Liz Carroll]
S: B.Breathnach:"Ceol Rince na hEireann" IV/186
Z: B.Black
L: 1/8
M: 4/4
R: reel
K: Ddor
Addc AGEC|Dddc A2 GE|Dddc AGED|ECCE G2 GE|
Dddc AGEC|Dddc A2 GE|Dddc AGED|ECCE G2 GE||
(3DDD DF ECCE|(3DDD AB cAGE|(3DDD DF ECCE|GECE G2 GE|
(3DDD DF ECCE|(3DDD AB cAGE|(3DDD DF ECCE|GECE G2 GB ||
AD (3DDD AGGB|cD (3DDD A2 dB|cD (3DDD AGED|ECCE G2 GB|
AD (3DDD AGGB|cD (3DDD A2 dB|cD (3DDD AGED|ECCE G2 GA ||
dede cece|dede a2 ge|dede cece|(3B^cd e^f g2 fe|
dede cece|dede a2 ge|dede cece|(3B^cd e^f g2 ge ||
ad (3ddd addg|ad (3ddd a2 ge|ad (3ddd ag^fd|(3B^cd e^f g2 fg|
ad (3ddd addg|ad (3ddd a2 ge|ad (3ddd ag^fd|(3B^cd e^f g2 ge ||
EGAB cBcA|EGAB c2 AG|EGAB cBce|g^fge d2 AG :|
